web/public/background-4.svg

<svg style="object-fit:cover" version="1" baseProfile="full" viewBox="0 0 1920 969" xmlns="http://www.w3.org/2000/svg"><path fill="#fff" d="M0 0H1920V969H0z"/><path d="M0 969V0v678c325 71.5 650 143 970 143s635-71.5 950-143v291z" fill="#f5df4d90" class="transition-all duration-300 ease-in-out delay-150" style="transform-origin:center center"/><path d="M0 969V0v1017c373.5-94.5 747-189 1067-189s586.5 94.5 853 189v-48z" fill="#f5df4dff" class="transition-all duration-300 ease-in-out delay-150" style="transform-origin:center center"/></svg>

<svg style="object-fit:cover" id="my-svg" version="1" baseProfile="full" width="100%" height="100%" viewBox="0 0 1920 969" xmlns="http://www.w3.org/2000/svg"><rect width="1920" height="969" fill="#ffffff"/><path transform="scale(1, 1)" d="M 0,969 V 0,678 C 325,749.5 650,821 970,821 C 1290,821 1605,749.5 1920,678 C 1920,678 1920,969 1920,969 Z" stroke="none" stroke-width="0" fill="#f5df4d90" class="transition-all duration-300 ease-in-out delay-150" style="transform-origin: center center;"/><path transform="scale(1, 1)" d="M 0,969 V 0,1017 C 373.5,922.5 747,828 1067,828 C 1387,828 1653.5,922.5 1920,1017 C 1920,1017 1920,969 1920,969 Z" stroke="none" stroke-width="0" fill="#f5df4dff" class="transition-all duration-300 ease-in-out delay-150" style="transform-origin: center center;"/></svg>
